logos/stackoverflow.svg

<?xml version="1.0" encoding="UTF-8"?>
<svg xmlns="http://www.w3.org/2000/svg" version="1.1" viewBox="0 0 99.552697 117.869">
	<path fill="#bcbbbb" d="m 84.0719,107.351 0,-31.5511 10.5164,0 0,42.0691 -94.5883,0 0,-42.0691 10.5164,0 0,31.5511 73.5555,0"/>
	<path fill="#f48024" d="m 21.0445,96.8331 52.5821,0 0,-10.5164 -52.5821,0 0,10.5164 z M 68.1711,0 59.7328,6.276 91.1145,48.4674 99.5527,42.1913 68.1711,0 Z M 42.0879,24.8741 82.4926,58.5245 89.2227,50.4432 48.818,16.793 42.0879,24.8741 Z M 28.8973,48.2588 76.5637,70.4581 81.0035,60.9249 33.3371,38.7256 28.8973,48.2588 Z M 22.0887,72.8979 73.5469,83.7127 75.7098,73.421 24.2516,62.6061 22.0887,72.8979"/>
</svg>

<svg xmlns="http://www.w3.org/2000/svg" viewBox="0 0 99.553 117.869">
	<path fill="#bcbbbb" d="m84.072 107.351v-31.551h10.516v42.069h-94.588v-42.069h10.516v31.551"/>
	<path fill="#f48024" d="M21.044 86.317v10.516h52.582v-10.516M24.252 62.606l-2.163 10.292 51.458 10.815 2.163-10.292M33.337 38.726 l-4.44 9.533 47.667 22.199 4.44-9.533M48.818 16.793 l -6.73 8.081 40.405 33.65 6.73-8.081M68.171 0l-8.438 6.276 31.381 42.191 8.439-6.276"/>
</svg>
